images/5379540.svg

<?xml version="1.0" encoding="UTF-8"?>
<svg xmlns="http://www.w3.org/2000/svg" xmlns:xlink="http://www.w3.org/1999/xlink" width="300pt" height="300pt" viewBox="0 0 300 300" version="1.1">
<defs>
<g>
<symbol overflow="visible" id="glyph0-0">
<path style="stroke:none;" d="M 0.59375 2.125 L 0.59375 -8.46875 L 6.59375 -8.46875 L 6.59375 2.125 Z M 1.265625 1.453125 L 5.9375 1.453125 L 5.9375 -7.78125 L 1.265625 -7.78125 Z M 1.265625 1.453125 "/>
</symbol>
<symbol overflow="visible" id="glyph0-1">
<path style="stroke:none;" d="M 4.734375 -7.953125 C 3.867188 -7.953125 3.179688 -7.628906 2.671875 -6.984375 C 2.171875 -6.347656 1.921875 -5.472656 1.921875 -4.359375 C 1.921875 -3.265625 2.171875 -2.394531 2.671875 -1.75 C 3.179688 -1.113281 3.867188 -0.796875 4.734375 -0.796875 C 5.585938 -0.796875 6.265625 -1.113281 6.765625 -1.75 C 7.273438 -2.394531 7.53125 -3.265625 7.53125 -4.359375 C 7.53125 -5.472656 7.273438 -6.347656 6.765625 -6.984375 C 6.265625 -7.628906 5.585938 -7.953125 4.734375 -7.953125 Z M 4.734375 -8.90625 C 5.953125 -8.90625 6.925781 -8.492188 7.65625 -7.671875 C 8.394531 -6.847656 8.765625 -5.742188 8.765625 -4.359375 C 8.765625 -2.984375 8.394531 -1.882812 7.65625 -1.0625 C 6.925781 -0.238281 5.953125 0.171875 4.734375 0.171875 C 3.503906 0.171875 2.519531 -0.238281 1.78125 -1.0625 C 1.039062 -1.882812 0.671875 -2.984375 0.671875 -4.359375 C 0.671875 -5.742188 1.039062 -6.847656 1.78125 -7.671875 C 2.519531 -8.492188 3.503906 -8.90625 4.734375 -8.90625 Z M 4.734375 -8.90625 "/>
</symbol>
<symbol overflow="visible" id="glyph0-2">
<path style="stroke:none;" d="M 1.171875 -8.75 L 2.359375 -8.75 L 2.359375 -5.15625 L 6.65625 -5.15625 L 6.65625 -8.75 L 7.84375 -8.75 L 7.84375 0 L 6.65625 0 L 6.65625 -4.171875 L 2.359375 -4.171875 L 2.359375 0 L 1.171875 0 Z M 1.171875 -8.75 "/>
</symbol>
</g>
</defs>
<g id="surface34753">
<rect x="0" y="0" width="300" height="300" style="fill:rgb(100%,100%,100%);fill-opacity:1;stroke:none;"/>
<path style="fill:none;stroke-width:1.2;stroke-linecap:butt;stroke-linejoin:miter;stroke:rgb(0%,0%,0%);stroke-opacity:1;stroke-miterlimit:10;" d="M 243.757812 211.367188 L 233.9375 182.234375 "/>
<path style="fill:none;stroke-width:1.2;stroke-linecap:butt;stroke-linejoin:miter;stroke:rgb(0%,0%,0%);stroke-opacity:1;stroke-miterlimit:10;" d="M 233.9375 182.234375 L 254.253906 159.164062 "/>
<path style="fill:none;stroke-width:1.2;stroke-linecap:butt;stroke-linejoin:miter;stroke:rgb(0%,0%,0%);stroke-opacity:1;stroke-miterlimit:10;" d="M 230.539062 175.148438 L 246.792969 156.6875 "/>
<path style="fill:none;stroke-width:1.2;stroke-linecap:butt;stroke-linejoin:miter;stroke:rgb(0%,0%,0%);stroke-opacity:1;stroke-miterlimit:10;" d="M 203.796875 176.175781 L 233.9375 182.234375 "/>
<path style="fill:none;stroke-width:1.2;stroke-linecap:butt;stroke-linejoin:miter;stroke:rgb(0%,0%,0%);stroke-opacity:1;stroke-miterlimit:10;" d="M 254.253906 159.164062 L 244.433594 130.03125 "/>
<path style="fill:none;stroke-width:1.2;stroke-linecap:butt;stroke-linejoin:miter;stroke:rgb(0%,0%,0%);stroke-opacity:1;stroke-miterlimit:10;" d="M 244.433594 130.03125 L 214.292969 123.972656 "/>
<path style="fill:none;stroke-width:1.2;stroke-linecap:butt;stroke-linejoin:miter;stroke:rgb(0%,0%,0%);stroke-opacity:1;stroke-miterlimit:10;" d="M 239.992188 136.515625 L 215.878906 131.667969 "/>
<path style="fill:none;stroke-width:1.2;stroke-linecap:butt;stroke-linejoin:miter;stroke:rgb(0%,0%,0%);stroke-opacity:1;stroke-miterlimit:10;" d="M 244.433594 130.03125 L 254.589844 118.496094 "/>
<path style="fill:none;stroke-width:1.2;stroke-linecap:butt;stroke-linejoin:miter;stroke:rgb(100%,0%,0%);stroke-opacity:1;stroke-miterlimit:10;" d="M 254.589844 118.496094 L 264.75 106.957031 "/>
<path style="fill:none;stroke-width:1.2;stroke-linecap:butt;stroke-linejoin:miter;stroke:rgb(0%,0%,0%);stroke-opacity:1;stroke-miterlimit:10;" d="M 214.292969 123.972656 L 193.972656 147.042969 "/>
<path style="fill:none;stroke-width:1.2;stroke-linecap:butt;stroke-linejoin:miter;stroke:rgb(0%,0%,0%);stroke-opacity:1;stroke-miterlimit:10;" d="M 214.292969 123.972656 L 204.46875 94.839844 "/>
<path style="fill:none;stroke-width:1.2;stroke-linecap:butt;stroke-linejoin:miter;stroke:rgb(0%,0%,0%);stroke-opacity:1;stroke-miterlimit:10;" d="M 193.972656 147.042969 L 203.796875 176.175781 "/>
<path style="fill:none;stroke-width:1.2;stroke-linecap:butt;stroke-linejoin:miter;stroke:rgb(0%,0%,0%);stroke-opacity:1;stroke-miterlimit:10;" d="M 188.101562 152.265625 L 195.960938 175.574219 "/>
<path style="fill:none;stroke-width:1.2;stroke-linecap:butt;stroke-linejoin:miter;stroke:rgb(100%,0%,0%);stroke-opacity:1;stroke-miterlimit:10;" d="M 165.074219 136.558594 L 179.523438 141.800781 "/>
<path style="fill:none;stroke-width:1.2;stroke-linecap:butt;stroke-linejoin:miter;stroke:rgb(0%,0%,0%);stroke-opacity:1;stroke-miterlimit:10;" d="M 179.523438 141.800781 L 193.972656 147.042969 "/>
<path style="fill:none;stroke-width:1.2;stroke-linecap:butt;stroke-linejoin:miter;stroke:rgb(0%,0%,0%);stroke-opacity:1;stroke-miterlimit:10;" d="M 203.796875 176.175781 L 187.144531 202.015625 "/>
<path style="fill:none;stroke-width:1.2;stroke-linecap:butt;stroke-linejoin:miter;stroke:rgb(0%,0%,0%);stroke-opacity:1;stroke-miterlimit:10;" d="M 184.058594 203.90625 L 192.089844 217.015625 "/>
<path style="fill:none;stroke-width:1.2;stroke-linecap:butt;stroke-linejoin:miter;stroke:rgb(100%,0%,0%);stroke-opacity:1;stroke-miterlimit:10;" d="M 192.089844 217.015625 L 200.117188 230.121094 "/>
<path style="fill:none;stroke-width:1.2;stroke-linecap:butt;stroke-linejoin:miter;stroke:rgb(0%,0%,0%);stroke-opacity:1;stroke-miterlimit:10;" d="M 190.226562 200.128906 L 198.257812 213.234375 "/>
<path style="fill:none;stroke-width:1.2;stroke-linecap:butt;stroke-linejoin:miter;stroke:rgb(100%,0%,0%);stroke-opacity:1;stroke-miterlimit:10;" d="M 198.257812 213.234375 L 206.285156 226.34375 "/>
<path style="fill:none;stroke-width:1.2;stroke-linecap:butt;stroke-linejoin:miter;stroke:rgb(0%,0%,0%);stroke-opacity:1;stroke-miterlimit:10;" d="M 187.144531 202.015625 L 171.851562 203.5625 "/>
<path style="fill:none;stroke-width:1.2;stroke-linecap:butt;stroke-linejoin:miter;stroke:rgb(100%,0%,0%);stroke-opacity:1;stroke-miterlimit:10;" d="M 171.851562 203.5625 L 156.558594 205.109375 "/>
<path style=" stroke:none;fill-rule:nonzero;fill:rgb(100%,100%,100%);fill-opacity:1;" d="M 198.203125 221.234375 L 208.203125 221.234375 L 208.203125 235.234375 L 198.203125 235.234375 Z M 198.203125 221.234375 "/>
<g style="fill:rgb(100%,0%,0%);fill-opacity:1;">
  <use xlink:href="#glyph0-1" x="198.203125" y="232.373047"/>
</g>
<path style="fill:none;stroke-width:1.2;stroke-linecap:butt;stroke-linejoin:miter;stroke:rgb(100%,0%,0%);stroke-opacity:1;stroke-miterlimit:10;" d="M 156.558594 205.109375 L 145.8125 194.117188 "/>
<path style="fill:none;stroke-width:1.2;stroke-linecap:butt;stroke-linejoin:miter;stroke:rgb(0%,0%,0%);stroke-opacity:1;stroke-miterlimit:10;" d="M 145.8125 194.117188 L 135.066406 183.125 "/>
<path style=" stroke:none;fill-rule:nonzero;fill:rgb(100%,100%,100%);fill-opacity:1;" d="M 151.558594 198.109375 L 161.558594 198.109375 L 161.558594 212.109375 L 151.558594 212.109375 Z M 151.558594 198.109375 "/>
<g style="fill:rgb(100%,0%,0%);fill-opacity:1;">
  <use xlink:href="#glyph0-1" x="151.558594" y="209.248047"/>
</g>
<path style="fill:none;stroke-width:1.2;stroke-linecap:butt;stroke-linejoin:miter;stroke:rgb(0%,0%,0%);stroke-opacity:1;stroke-miterlimit:10;" d="M 135.066406 183.125 L 138.859375 152.617188 "/>
<path style="fill:none;stroke-width:1.2;stroke-linecap:butt;stroke-linejoin:miter;stroke:rgb(0%,0%,0%);stroke-opacity:1;stroke-miterlimit:10;" d="M 128.269531 179.183594 L 131.300781 154.777344 "/>
<path style="fill:none;stroke-width:1.2;stroke-linecap:butt;stroke-linejoin:miter;stroke:rgb(0%,0%,0%);stroke-opacity:1;stroke-miterlimit:10;" d="M 106.75 195.097656 L 135.066406 183.125 "/>
<path style="fill:none;stroke-width:1.2;stroke-linecap:butt;stroke-linejoin:miter;stroke:rgb(0%,0%,0%);stroke-opacity:1;stroke-miterlimit:10;" d="M 138.859375 152.617188 L 151.964844 144.585938 "/>
<path style="fill:none;stroke-width:1.2;stroke-linecap:butt;stroke-linejoin:miter;stroke:rgb(100%,0%,0%);stroke-opacity:1;stroke-miterlimit:10;" d="M 151.964844 144.585938 L 165.074219 136.558594 "/>
<path style="fill:none;stroke-width:1.2;stroke-linecap:butt;stroke-linejoin:miter;stroke:rgb(0%,0%,0%);stroke-opacity:1;stroke-miterlimit:10;" d="M 138.859375 152.617188 L 114.332031 134.082031 "/>
<path style=" stroke:none;fill-rule:nonzero;fill:rgb(100%,100%,100%);fill-opacity:1;" d="M 160.074219 129.558594 L 170.074219 129.558594 L 170.074219 143.558594 L 160.074219 143.558594 Z M 160.074219 129.558594 "/>
<g style="fill:rgb(100%,0%,0%);fill-opacity:1;">
  <use xlink:href="#glyph0-1" x="160.074219" y="140.697266"/>
</g>
<path style="fill:none;stroke-width:1.2;stroke-linecap:butt;stroke-linejoin:miter;stroke:rgb(0%,0%,0%);stroke-opacity:1;stroke-miterlimit:10;" d="M 114.332031 134.082031 L 86.015625 146.050781 "/>
<path style="fill:none;stroke-width:1.2;stroke-linecap:butt;stroke-linejoin:miter;stroke:rgb(0%,0%,0%);stroke-opacity:1;stroke-miterlimit:10;" d="M 108.683594 128.613281 L 86.03125 138.191406 "/>
<path style="fill:none;stroke-width:1.2;stroke-linecap:butt;stroke-linejoin:miter;stroke:rgb(0%,0%,0%);stroke-opacity:1;stroke-miterlimit:10;" d="M 111.695312 103.449219 L 114.332031 134.082031 "/>
<path style="fill:none;stroke-width:1.2;stroke-linecap:butt;stroke-linejoin:miter;stroke:rgb(0%,0%,0%);stroke-opacity:1;stroke-miterlimit:10;" d="M 86.015625 146.050781 L 82.226562 176.558594 "/>
<path style="fill:none;stroke-width:1.2;stroke-linecap:butt;stroke-linejoin:miter;stroke:rgb(0%,0%,0%);stroke-opacity:1;stroke-miterlimit:10;" d="M 86.015625 146.050781 L 65.878906 122.820312 "/>
<path style="fill:none;stroke-width:1.2;stroke-linecap:butt;stroke-linejoin:miter;stroke:rgb(0%,0%,0%);stroke-opacity:1;stroke-miterlimit:10;" d="M 82.226562 176.558594 L 106.75 195.097656 "/>
<path style="fill:none;stroke-width:1.2;stroke-linecap:butt;stroke-linejoin:miter;stroke:rgb(0%,0%,0%);stroke-opacity:1;stroke-miterlimit:10;" d="M 89.039062 172.644531 L 108.660156 187.472656 "/>
<path style="fill:none;stroke-width:1.2;stroke-linecap:butt;stroke-linejoin:miter;stroke:rgb(0%,0%,0%);stroke-opacity:1;stroke-miterlimit:10;" d="M 82.226562 176.558594 L 68.066406 182.546875 "/>
<path style="fill:none;stroke-width:1.2;stroke-linecap:butt;stroke-linejoin:miter;stroke:rgb(100%,0%,0%);stroke-opacity:1;stroke-miterlimit:10;" d="M 68.066406 182.546875 L 53.910156 188.53125 "/>
<path style="fill:none;stroke-width:1.2;stroke-linecap:butt;stroke-linejoin:miter;stroke:rgb(0%,0%,0%);stroke-opacity:1;stroke-miterlimit:10;" d="M 106.75 195.097656 L 102.960938 225.605469 "/>
<path style=" stroke:none;fill-rule:nonzero;fill:rgb(100%,100%,100%);fill-opacity:1;" d="M 34.910156 181.53125 L 53.910156 181.53125 L 53.910156 195.53125 L 34.910156 195.53125 Z M 34.910156 181.53125 "/>
<g style="fill:rgb(100%,0%,0%);fill-opacity:1;">
  <use xlink:href="#glyph0-2" x="34.910156" y="192.669922"/>
  <use xlink:href="#glyph0-1" x="43.933594" y="192.669922"/>
</g>
<path style="fill:none;stroke-width:1.2;stroke-linecap:butt;stroke-linejoin:miter;stroke:rgb(0%,0%,0%);stroke-opacity:1;stroke-miterlimit:10;" d="M 65.570312 119.21875 L 50.253906 120.535156 "/>
<path style="fill:none;stroke-width:1.2;stroke-linecap:butt;stroke-linejoin:miter;stroke:rgb(100%,0%,0%);stroke-opacity:1;stroke-miterlimit:10;" d="M 50.253906 120.535156 L 34.941406 121.851562 "/>
<path style="fill:none;stroke-width:1.2;stroke-linecap:butt;stroke-linejoin:miter;stroke:rgb(0%,0%,0%);stroke-opacity:1;stroke-miterlimit:10;" d="M 66.191406 126.425781 L 50.875 127.742188 "/>
<path style="fill:none;stroke-width:1.2;stroke-linecap:butt;stroke-linejoin:miter;stroke:rgb(100%,0%,0%);stroke-opacity:1;stroke-miterlimit:10;" d="M 50.875 127.742188 L 35.558594 129.058594 "/>
<path style="fill:none;stroke-width:1.2;stroke-linecap:butt;stroke-linejoin:miter;stroke:rgb(0%,0%,0%);stroke-opacity:1;stroke-miterlimit:10;" d="M 65.878906 122.820312 L 73.816406 109.65625 "/>
<path style="fill:none;stroke-width:1.2;stroke-linecap:butt;stroke-linejoin:miter;stroke:rgb(100%,0%,0%);stroke-opacity:1;stroke-miterlimit:10;" d="M 73.816406 109.65625 L 81.75 96.492188 "/>
<path style=" stroke:none;fill-rule:nonzero;fill:rgb(100%,100%,100%);fill-opacity:1;" d="M 25.25 118.457031 L 35.25 118.457031 L 35.25 132.457031 L 25.25 132.457031 Z M 25.25 118.457031 "/>
<g style="fill:rgb(100%,0%,0%);fill-opacity:1;">
  <use xlink:href="#glyph0-1" x="25.25" y="129.595703"/>
</g>
<path style="fill:none;stroke-width:1.2;stroke-linecap:butt;stroke-linejoin:miter;stroke:rgb(100%,0%,0%);stroke-opacity:1;stroke-miterlimit:10;" d="M 81.75 96.492188 L 96.722656 99.972656 "/>
<path style="fill:none;stroke-width:1.2;stroke-linecap:butt;stroke-linejoin:miter;stroke:rgb(0%,0%,0%);stroke-opacity:1;stroke-miterlimit:10;" d="M 96.722656 99.972656 L 111.695312 103.449219 "/>
<path style=" stroke:none;fill-rule:nonzero;fill:rgb(100%,100%,100%);fill-opacity:1;" d="M 76.75 89.492188 L 86.75 89.492188 L 86.75 103.492188 L 76.75 103.492188 Z M 76.75 89.492188 "/>
<g style="fill:rgb(100%,0%,0%);fill-opacity:1;">
  <use xlink:href="#glyph0-1" x="76.75" y="100.630859"/>
</g>
<path style="fill:none;stroke-width:1.2;stroke-linecap:butt;stroke-linejoin:miter;stroke:rgb(0%,0%,0%);stroke-opacity:1;stroke-miterlimit:10;" d="M 111.695312 103.449219 L 123.3125 93.382812 "/>
<path style="fill:none;stroke-width:1.2;stroke-linecap:butt;stroke-linejoin:miter;stroke:rgb(100%,0%,0%);stroke-opacity:1;stroke-miterlimit:10;" d="M 123.3125 93.382812 L 134.929688 83.3125 "/>
<path style=" stroke:none;fill-rule:nonzero;fill:rgb(100%,100%,100%);fill-opacity:1;" d="M 125.929688 76.3125 L 144.929688 76.3125 L 144.929688 90.3125 L 125.929688 90.3125 Z M 125.929688 76.3125 "/>
<g style="fill:rgb(100%,0%,0%);fill-opacity:1;">
  <use xlink:href="#glyph0-1" x="125.929688" y="87.451172"/>
  <use xlink:href="#glyph0-2" x="135.375" y="87.451172"/>
</g>
<path style="fill:none;stroke-width:1.2;stroke-linecap:butt;stroke-linejoin:miter;stroke:rgb(0%,0%,0%);stroke-opacity:1;stroke-miterlimit:10;" d="M 207.183594 97.230469 L 217.34375 85.691406 "/>
<path style="fill:none;stroke-width:1.2;stroke-linecap:butt;stroke-linejoin:miter;stroke:rgb(100%,0%,0%);stroke-opacity:1;stroke-miterlimit:10;" d="M 217.34375 85.691406 L 227.503906 74.15625 "/>
<path style="fill:none;stroke-width:1.2;stroke-linecap:butt;stroke-linejoin:miter;stroke:rgb(0%,0%,0%);stroke-opacity:1;stroke-miterlimit:10;" d="M 201.753906 92.449219 L 211.914062 80.914062 "/>
<path style="fill:none;stroke-width:1.2;stroke-linecap:butt;stroke-linejoin:miter;stroke:rgb(100%,0%,0%);stroke-opacity:1;stroke-miterlimit:10;" d="M 211.914062 80.914062 L 222.074219 69.375 "/>
<path style=" stroke:none;fill-rule:nonzero;fill:rgb(100%,100%,100%);fill-opacity:1;" d="M 219.789062 64.765625 L 229.789062 64.765625 L 229.789062 78.765625 L 219.789062 78.765625 Z M 219.789062 64.765625 "/>
<g style="fill:rgb(100%,0%,0%);fill-opacity:1;">
  <use xlink:href="#glyph0-1" x="219.789062" y="75.904297"/>
</g>
<path style=" stroke:none;fill-rule:nonzero;fill:rgb(100%,100%,100%);fill-opacity:1;" d="M 255.75 99.957031 L 274.75 99.957031 L 274.75 113.957031 L 255.75 113.957031 Z M 255.75 99.957031 "/>
<g style="fill:rgb(100%,0%,0%);fill-opacity:1;">
  <use xlink:href="#glyph0-1" x="255.75" y="111.095703"/>
  <use xlink:href="#glyph0-2" x="265.195312" y="111.095703"/>
</g>
</g>
</svg>

<svg xmlns="http://www.w3.org/2000/svg" xmlns:xlink="http://www.w3.org/1999/xlink" width="300pt" height="300pt" viewBox="0 0 300 300"><defs><symbol overflow="visible"><path d="M.594 2.125V-8.47h6V2.126zm.672-.672h4.671V-7.78h-4.67zm0 0"/></symbol><symbol overflow="visible" id="a"><path d="M4.734-7.953c-.867 0-1.554.324-2.062.97-.5.635-.75 1.51-.75 2.624 0 1.094.25 1.965.75 2.61.508.637 1.195.953 2.062.953.852 0 1.532-.316 2.032-.953.507-.645.765-1.516.765-2.61 0-1.113-.257-1.988-.764-2.624-.5-.645-1.18-.97-2.032-.97zm0-.953c1.22 0 2.192.414 2.922 1.234.74.824 1.11 1.93 1.11 3.313 0 1.376-.37 2.477-1.11 3.298C6.926-.24 5.953.17 4.734.17c-1.23 0-2.214-.41-2.953-1.234C1.04-1.882.673-2.984.673-4.36c0-1.382.367-2.488 1.11-3.312.738-.82 1.722-1.234 2.952-1.234zm0 0"/></symbol><symbol overflow="visible" id="b"><path d="M1.172-8.75H2.36v3.594h4.296V-8.75h1.188V0H6.656v-4.172H2.36V0H1.17zm0 0"/></symbol></defs><g><path fill="#fff" d="M0 0h300v300H0z"/><path d="M243.758 211.367l-9.82-29.133M233.938 182.234l20.316-23.07M230.54 175.148l16.253-18.46M203.797 176.176l30.14 6.058M254.254 159.164l-9.82-29.133M244.434 130.03l-30.14-6.057M239.992 136.516l-24.113-4.848M244.434 130.03l10.156-11.534" stroke-width="1.2" stroke="#000" stroke-miterlimit="10" fill="none"/><path d="M254.59 118.496l10.16-11.54" stroke-width="1.2" stroke="#f00" stroke-miterlimit="10" fill="none"/><path d="M214.293 123.973l-20.32 23.07M214.293 123.973L204.47 94.84M193.973 147.043l9.824 29.133M188.102 152.266l7.86 23.308" stroke-width="1.2" stroke="#000" stroke-miterlimit="10" fill="none"/><path d="M165.074 136.56l14.45 5.24" stroke-width="1.2" stroke="#f00" stroke-miterlimit="10" fill="none"/><path d="M179.523 141.8l14.45 5.243M203.797 176.176l-16.652 25.84M184.06 203.906l8.03 13.11" stroke-width="1.2" stroke="#000" stroke-miterlimit="10" fill="none"/><path d="M192.09 217.016l8.027 13.105" stroke-width="1.2" stroke="#f00" stroke-miterlimit="10" fill="none"/><path d="M190.227 200.13l8.03 13.104" stroke-width="1.2" stroke="#000" stroke-miterlimit="10" fill="none"/><path d="M198.258 213.234l8.027 13.11" stroke-width="1.2" stroke="#f00" stroke-miterlimit="10" fill="none"/><path d="M187.145 202.016l-15.293 1.547" stroke-width="1.2" stroke="#000" stroke-miterlimit="10" fill="none"/><path d="M171.852 203.563l-15.293 1.546" stroke-width="1.2" stroke="#f00" stroke-miterlimit="10" fill="none"/><path d="M198.203 221.234h10v14h-10zm0 0" fill="#fff"/><use xlink:href="#a" x="198.203" y="232.373" fill="#f00"/><path d="M156.56 205.11l-10.748-10.993" stroke-width="1.2" stroke="#f00" stroke-miterlimit="10" fill="none"/><path d="M145.813 194.117l-10.747-10.992" stroke-width="1.2" stroke="#000" stroke-miterlimit="10" fill="none"/><path d="M151.56 198.11h10v14h-10zm0 0" fill="#fff"/><use xlink:href="#a" x="151.559" y="209.248" fill="#f00"/><path d="M135.066 183.125l3.793-30.508M128.27 179.184l3.03-24.407M106.75 195.098l28.316-11.973M138.86 152.617l13.105-8.03" stroke-width="1.2" stroke="#000" stroke-miterlimit="10" fill="none"/><path d="M151.965 144.586l13.11-8.027" stroke-width="1.2" stroke="#f00" stroke-miterlimit="10" fill="none"/><path d="M138.86 152.617l-24.528-18.535" stroke-width="1.2" stroke="#000" stroke-miterlimit="10" fill="none"/><path d="M160.074 129.56h10v14h-10zm0 0" fill="#fff"/><use xlink:href="#a" x="160.074" y="140.697" fill="#f00"/><path d="M114.332 134.082l-28.316 11.97M108.684 128.613L86.03 138.19M111.695 103.45l2.637 30.632M86.016 146.05l-3.79 30.51M86.016 146.05L65.88 122.82M82.227 176.56l24.523 18.538M89.04 172.645l19.62 14.828M82.227 176.56l-14.16 5.987" stroke-width="1.2" stroke="#000" stroke-miterlimit="10" fill="none"/><path d="M68.066 182.547L53.91 188.53" stroke-width="1.2" stroke="#f00" stroke-miterlimit="10" fill="none"/><path d="M106.75 195.098l-3.79 30.507" stroke-width="1.2" stroke="#000" stroke-miterlimit="10" fill="none"/><path d="M34.91 181.53h19v14h-19zm0 0" fill="#fff"/><g fill="#f00"><use xlink:href="#b" x="34.91" y="192.67"/><use xlink:href="#a" x="43.934" y="192.67"/></g><path d="M65.57 119.22l-15.316 1.315" stroke-width="1.2" stroke="#000" stroke-miterlimit="10" fill="none"/><path d="M50.254 120.535l-15.313 1.317" stroke-width="1.2" stroke="#f00" stroke-miterlimit="10" fill="none"/><path d="M66.19 126.426l-15.315 1.316" stroke-width="1.2" stroke="#000" stroke-miterlimit="10" fill="none"/><path d="M50.875 127.742L35.56 129.06" stroke-width="1.2" stroke="#f00" stroke-miterlimit="10" fill="none"/><path d="M65.88 122.82l7.936-13.164" stroke-width="1.2" stroke="#000" stroke-miterlimit="10" fill="none"/><path d="M73.816 109.656l7.934-13.164" stroke-width="1.2" stroke="#f00" stroke-miterlimit="10" fill="none"/><path d="M25.25 118.457h10v14h-10zm0 0" fill="#fff"/><use xlink:href="#a" x="25.25" y="129.596" fill="#f00"/><path d="M81.75 96.492l14.973 3.48" stroke-width="1.2" stroke="#f00" stroke-miterlimit="10" fill="none"/><path d="M96.723 99.973l14.972 3.476" stroke-width="1.2" stroke="#000" stroke-miterlimit="10" fill="none"/><path d="M76.75 89.492h10v14h-10zm0 0" fill="#fff"/><use xlink:href="#a" x="76.75" y="100.631" fill="#f00"/><path d="M111.695 103.45l11.618-10.067" stroke-width="1.2" stroke="#000" stroke-miterlimit="10" fill="none"/><path d="M123.313 93.383l11.617-10.07" stroke-width="1.2" stroke="#f00" stroke-miterlimit="10" fill="none"/><path d="M125.93 76.313h19v14h-19zm0 0" fill="#fff"/><g fill="#f00"><use xlink:href="#a" x="125.93" y="87.451"/><use xlink:href="#b" x="135.375" y="87.451"/></g><path d="M207.184 97.23l10.16-11.54" stroke-width="1.2" stroke="#000" stroke-miterlimit="10" fill="none"/><path d="M217.344 85.69l10.16-11.534" stroke-width="1.2" stroke="#f00" stroke-miterlimit="10" fill="none"/><path d="M201.754 92.45l10.16-11.536" stroke-width="1.2" stroke="#000" stroke-miterlimit="10" fill="none"/><path d="M211.914 80.914l10.16-11.54" stroke-width="1.2" stroke="#f00" stroke-miterlimit="10" fill="none"/><path d="M219.79 64.766h10v14h-10zm0 0" fill="#fff"/><use xlink:href="#a" x="219.789" y="75.904" fill="#f00"/><path d="M255.75 99.957h19v14h-19zm0 0" fill="#fff"/><g fill="#f00"><use xlink:href="#a" x="255.75" y="111.096"/><use xlink:href="#b" x="265.195" y="111.096"/></g></g></svg>
